docs/img/chaos-litmus.svg

<?xml version="1.0" encoding="UTF-8" standalone="no"?>
<svg
   height="40"
   viewBox="0 0 60 40"
   width="60"
   version="1.1"
   id="svg36"
   sodipodi:docname="chaos-litmus.svg"
   inkscape:version="1.1.2 (0a00cf5339, 2022-02-04)"
   xmlns:inkscape="http://www.inkscape.org/namespaces/inkscape"
   xmlns:sodipodi="http://sodipodi.sourceforge.net/DTD/sodipodi-0.dtd"
   xmlns="http://www.w3.org/2000/svg"
   xmlns:svg="http://www.w3.org/2000/svg"
   xmlns:rdf="http://www.w3.org/1999/02/22-rdf-syntax-ns#"
   xmlns:cc="http://creativecommons.org/ns#"
   xmlns:dc="http://purl.org/dc/elements/1.1/">
  <sodipodi:namedview
     pagecolor="#ffffff"
     bordercolor="#666666"
     borderopacity="1"
     objecttolerance="10"
     gridtolerance="10"
     guidetolerance="10"
     inkscape:pageopacity="0"
     inkscape:pageshadow="2"
     inkscape:window-width="2048"
     inkscape:window-height="1083"
     id="namedview81"
     showgrid="false"
     showguides="false"
     inkscape:zoom="2.8284271"
     inkscape:cx="19.622213"
     inkscape:cy="23.334524"
     inkscape:window-x="0"
     inkscape:window-y="0"
     inkscape:window-maximized="1"
     inkscape:current-layer="g1042"
     inkscape:document-rotation="0"
     inkscape:pagecheckerboard="0" />
  <metadata
     id="metadata42">
    <rdf:RDF>
      <cc:Work
         rdf:about="">
        <dc:format>image/svg+xml</dc:format>
        <dc:type
           rdf:resource="http://purl.org/dc/dcmitype/StillImage" />
      </cc:Work>
    </rdf:RDF>
  </metadata>
  <defs
     id="defs40">
    <mask
       id="a-1"
       fill="#ffffff">
      <path
         d="M 0,0 H 313.30315 V 159.86486 H 0 Z"
         fill="#ffffff"
         fill-rule="evenodd"
         id="path2-9" />
    </mask>
    <clipPath
       clipPathUnits="userSpaceOnUse"
       id="clipPath3444">
      <path
         d="M 11.52,162 C 11.52,81.677 135.307,16.561 288,16.561 v 0 c 152.693,0 276.481,65.116 276.481,145.439 v 0 c 0,80.322 -123.788,145.439 -276.481,145.439 v 0 C 135.307,307.439 11.52,242.322 11.52,162"
         id="path3446" />
    </clipPath>
    <radialGradient
       cx="0"
       cy="0"
       fx="0"
       fy="0"
       gradientTransform="matrix(363.05789,0,0,-363.05789,177.52002,256.30713)"
       gradientUnits="userSpaceOnUse"
       id="radialGradient3452"
       r="1"
       spreadMethod="pad">
      <stop
         id="stop3454"
         offset="0"
         style="stop-opacity:1;stop-color:#aeb2d5" />
      <stop
         id="stop3456"
         offset="0.3"
         style="stop-opacity:1;stop-color:#aeb2d5" />
      <stop
         id="stop3458"
         offset="0.75"
         style="stop-opacity:1;stop-color:#484c89" />
      <stop
         id="stop3460"
         offset="1"
         style="stop-opacity:1;stop-color:#484c89" />
    </radialGradient>
    <clipPath
       clipPathUnits="userSpaceOnUse"
       id="clipPath3468">
      <path
         d="M 0,324 H 576 V 0 H 0 Z"
         id="path3470" />
    </clipPath>
    <clipPath
       clipPathUnits="userSpaceOnUse"
       id="clipPath3480">
      <path
         d="M 0,324 H 576 V 0 H 0 Z"
         id="path3482" />
    </clipPath>
    <clipPath
       id="clipPath916"
       clipPathUnits="userSpaceOnUse">
      <path
         inkscape:connector-curvature="0"
         id="path914"
         d="M 0,27.553 H 27.55 V 0 H 0 Z" />
    </clipPath>
  </defs>
  <mask
     id="a"
     fill="#ffffff">
    <path
       d="M 0,0 H 313.30315 V 159.86486 H 0 Z"
       fill="#ffffff"
       fill-rule="evenodd"
       id="path2" />
  </mask>
  <mask
     id="b"
     fill="#ffffff">
    <path
       d="M 0,0 H 313.30315 V 159.86486 H 0 Z"
       fill="#ffffff"
       fill-rule="evenodd"
       id="path5" />
  </mask>
  <g
     id="g1042"
     style="display:inline">
    <g
       id="g994"
       transform="matrix(0.08667043,0,0,0.08667043,54.837532,-43.975856)"
       style="display:inline">
      <path
         id="path990"
         style="fill:#000e44;fill-opacity:1;fill-rule:evenodd;stroke:none;stroke-width:3.14747"
         d="m 56.695351,510.77372 -107.53235,84.40183 -79.398391,-66.27467 61.189259,82.84335 -54.627399,74.39502 72.836531,-52.98696 102.528945,91.04567 -81.03891,-107.53235 z" />
    </g>
    <circle
       style="opacity:1;fill:#eaed8c;fill-opacity:1;stroke:none;stroke-width:0.308165;stroke-miterlimit:2.5;stroke-opacity:1;stop-color:#000000"
       id="path912"
       cx="16.627409"
       cy="16.633268"
       r="16.433828" />
    <g
       fill="none"
       fill-rule="evenodd"
       transform="matrix(0.15069337,0,0,0.15069337,-6.1976669,-20.880758)"
       id="g1008"
       style="fill:#6f6f0c;fill-opacity:1">
      <g
         transform="matrix(0.92863152,0,0,-0.92863152,9.2718211,454.1644)"
         id="g1006"
         style="fill:#6f6f0c;fill-opacity:1">
        <g
           fill="#0f1689"
           mask="url(#a-1)"
           id="g1002"
           style="fill:#6f6f0c;fill-opacity:1"
           transform="matrix(0.94489362,0,0,0.94489362,8.6962507,2.7018401)">
          <path
             d="m 203.46068,95.687543 c 6.93631,0 12.5593,-14.80922 12.5593,-33.077318 0,-18.268097 -5.62299,-33.077317 -12.5593,-33.077317 -6.93631,0 -12.55931,14.80922 -12.55931,33.077317 0,18.268098 5.62299,33.077318 12.55931,33.077318 z"
             transform="rotate(35,137.93117,151.55002)"
             id="path996"
             style="fill:#6f6f0c;fill-opacity:1" />
          <path
             d="m 30.142322,95.687543 c 6.936311,0 12.559301,-14.80922 12.559301,-33.077318 0,-18.268097 -5.62299,-33.077317 -12.559301,-33.077317 -6.93631,0 -12.559301,14.80922 -12.559301,33.077317 0,18.268098 5.622991,33.077318 12.559301,33.077318 z"
             transform="matrix(-0.81915204,0.57357644,0.57357644,0.81915204,58.084611,47.704768)"
             id="path998"
             style="fill:#6f6f0c;fill-opacity:1" />
          <path
             d="m 116.73282,66.275268 c 6.93631,0 12.5593,-14.80922 12.5593,-33.077318 0,-18.268097 -5.62299,-33.07731673 -12.55931,-33.07731673 -6.93631,0 -12.5593,14.80921973 -12.5593,33.07731673 0,18.268098 5.62299,33.077318 12.55931,33.077318 z"
             transform="matrix(-1,0,0,1,272.62852,53.670762)"
             id="path1000"
             style="fill:#6f6f0c;fill-opacity:1" />
        </g>
        <path
           d="m 251.46701,173.09985 c -20.23008,-33.60997 -56.88957,-56.06791 -98.75578,-56.06791 -40.7208,0 -76.515877,21.2459 -97.058696,53.33459"
           mask="url(#a-1)"
           stroke="#0f1689"
           stroke-width="20"
           id="path1004"
           style="stroke:#6f6f0c;stroke-opacity:1;fill:none;fill-opacity:1"
           transform="matrix(0.94489362,0,0,0.94489362,8.6962507,2.7018401)" />
      </g>
    </g>
    <g
       id="g97"
       transform="matrix(0.03936691,0,0,0.03936691,6.8555781,5.1294397)" />
    <g
       id="g99"
       transform="matrix(0.03936691,0,0,0.03936691,6.8555781,5.1294397)" />
    <g
       id="g101"
       transform="matrix(0.03936691,0,0,0.03936691,6.8555781,5.1294397)" />
    <g
       id="g103"
       transform="matrix(0.03936691,0,0,0.03936691,6.8555781,5.1294397)" />
    <g
       id="g105"
       transform="matrix(0.03936691,0,0,0.03936691,6.8555781,5.1294397)" />
    <g
       id="g107"
       transform="matrix(0.03936691,0,0,0.03936691,6.8555781,5.1294397)" />
    <g
       id="g109"
       transform="matrix(0.03936691,0,0,0.03936691,6.8555781,5.1294397)" />
    <g
       id="g111"
       transform="matrix(0.03936691,0,0,0.03936691,6.8555781,5.1294397)" />
    <g
       id="g113"
       transform="matrix(0.03936691,0,0,0.03936691,6.8555781,5.1294397)" />
    <g
       id="g115"
       transform="matrix(0.03936691,0,0,0.03936691,6.8555781,5.1294397)" />
    <g
       id="g117"
       transform="matrix(0.03936691,0,0,0.03936691,6.8555781,5.1294397)" />
    <g
       id="g119"
       transform="matrix(0.03936691,0,0,0.03936691,6.8555781,5.1294397)" />
    <g
       id="g121"
       transform="matrix(0.03936691,0,0,0.03936691,6.8555781,5.1294397)" />
    <g
       id="g123"
       transform="matrix(0.03936691,0,0,0.03936691,6.8555781,5.1294397)" />
    <g
       id="g125"
       transform="matrix(0.03936691,0,0,0.03936691,6.8555781,5.1294397)" />
    <path
       inkscape:connector-curvature="0"
       id="path908"
       style="fill:#1f1f03;fill-opacity:1;fill-rule:nonzero;stroke:none;stroke-width:0.832792"
       d="M 12.840143,13.743716 H 10.330937 V 6.7532547 h 2.509206 z" />
    <g
       id="g910"
       transform="matrix(0.83279254,0,0,-0.83279254,7.959977,27.186652)">
      <g
         clip-path="url(#clipPath916)"
         id="g912">
        <path
           inkscape:connector-curvature="0"
           id="path918"
           style="fill:#6f6f0c;fill-opacity:1;fill-rule:nonzero;stroke:none"
           d="M 17.536,3.005 H 8.583 v 3.013 h 8.953 z m -11.676,0 H 2.847 v 21.53 H 5.86 Z M 0.038,27.553 V 2.338 C 0.038,1.047 1.085,0 2.376,0 h 15.658 c 1.276,0 2.311,1.034 2.311,2.311 v 25.242 z" />
      </g>
    </g>
  </g>
  <g
     transform="matrix(0.95879878,0,0,0.95879878,-871.34292,-378.35028)"
     id="g893" />
</svg>

<?xml version="1.0" encoding="UTF-8"?>
<svg width="60" height="40" version="1.1" viewBox="0 0 60 40" xmlns="http://www.w3.org/2000/svg" xmlns:cc="http://creativecommons.org/ns#" xmlns:dc="http://purl.org/dc/elements/1.1/" xmlns:rdf="http://www.w3.org/1999/02/22-rdf-syntax-ns#">
 <metadata>
  <rdf:RDF>
   <cc:Work rdf:about="">
    <dc:format>image/svg+xml</dc:format>
    <dc:type rdf:resource="http://purl.org/dc/dcmitype/StillImage"/>
   </cc:Work>
  </rdf:RDF>
 </metadata>
 <defs>
  <mask id="a-1" fill="#ffffff">
   <path d="m0 0h313.3v159.86h-313.3z" fill="#fff" fill-rule="evenodd"/>
  </mask>
  <clipPath id="clipPath916">
   <path d="M 0,27.553 H 27.55 V 0 H 0 Z"/>
  </clipPath>
 </defs>
 <mask id="a" fill="#ffffff">
  <path d="m0 0h313.3v159.86h-313.3z" fill="#fff" fill-rule="evenodd"/>
 </mask>
 <mask id="b" fill="#ffffff">
  <path d="m0 0h313.3v159.86h-313.3z" fill="#fff" fill-rule="evenodd"/>
 </mask>
 <g>
  <g transform="matrix(.08667 0 0 .08667 54.838 -43.976)">
   <path d="m56.695 510.77-107.53 84.402-79.398-66.275 61.189 82.843-54.627 74.395 72.837-52.987 102.53 91.046-81.039-107.53z" fill="#000e44" fill-rule="evenodd"/>
  </g>
  <g>
   <circle cx="16.627" cy="16.633" r="16.434" fill="#e09952" stop-color="#000000"/>
   <g transform="matrix(.15069 0 0 .15069 -6.1977 -20.881)" fill="#6f6f0c" fill-rule="evenodd">
    <g transform="matrix(.92863 0 0 -.92863 9.2718 454.16)">
     <g transform="matrix(.94489 0 0 .94489 8.6963 2.7018)" fill="#6d4013" mask="url(#a-1)">
      <path transform="rotate(35 137.93 151.55)" d="m203.46 95.688c6.9363 0 12.559-14.809 12.559-33.077 0-18.268-5.623-33.077-12.559-33.077s-12.559 14.809-12.559 33.077c0 18.268 5.623 33.077 12.559 33.077z"/>
      <path transform="matrix(-.81915 .57358 .57358 .81915 58.085 47.705)" d="m30.142 95.688c6.9363 0 12.559-14.809 12.559-33.077 0-18.268-5.623-33.077-12.559-33.077-6.9363 0-12.559 14.809-12.559 33.077 0 18.268 5.623 33.077 12.559 33.077z"/>
      <path transform="matrix(-1 0 0 1 272.63 53.671)" d="m116.73 66.275c6.9363 0 12.559-14.809 12.559-33.077 0-18.268-5.623-33.077-12.559-33.077-6.9363 0-12.559 14.809-12.559 33.077 0 18.268 5.623 33.077 12.559 33.077z"/>
     </g>
     <path transform="matrix(.94489 0 0 .94489 8.6963 2.7018)" d="m251.47 173.1c-20.23-33.61-56.89-56.068-98.756-56.068-40.721 0-76.516 21.246-97.059 53.335" fill="none" mask="url(#a-1)" stroke="#6d4013" stroke-width="20"/>
    </g>
   </g>
   <path d="m12.84 13.744h-2.5092v-6.9905h2.5092z" fill="#231406"/>
  </g>
  <g transform="matrix(.83279 0 0 -.83279 7.96 27.187)">
   <g clip-path="url(#clipPath916)">
    <path d="m17.536 3.005h-8.953v3.013h8.953zm-11.676 0h-3.013v21.53h3.013zm-5.822 24.548v-25.215c0-1.291 1.047-2.338 2.338-2.338h15.658c1.276 0 2.311 1.034 2.311 2.311v25.242z" fill="#6d4013"/>
   </g>
  </g>
 </g>
</svg>
